qtOgitor/res/icons/entity.svg

<svg width="40" xmlns="http://www.w3.org/2000/svg" height="40" viewBox="0 0 32 32">
<path fill="#575975" d="m13.7,2.67c1.45-1.86 3.89-1.36 5.91-1.09-1.29,1.38-5.59,3.16-2.7,4.98 2.08,.19 4.17,.02 6.25-.08-.28-1.13-.56-2.26-.83-3.39 2.1,2.17 .85,5.04 1.29,7.67-3.12-.32-6.32-.49-9.29,.73-.32,1.86-.64,3.72-.97,5.58 3.76-.42 7.54-.73 11.22-1.64-.88,.6-1.77,1.18-2.66,1.76 1.71,2.09 3.33,4.26 4.77,6.54-.37-.11-1.13-.32-1.5-.42-1.51-2.4-4.21,.24-2.24,2.04l.39,.57c-2.6,1.99-5-.75-6.42-2.74-2.32,3.32-5.39,6.23-9.27,7.6-3.84,.22-4.2-4.3-5.56-6.87 3.13-1.28 7.08-3.13 7.38-6.98 .25-2.86 1.45-5.46 3.34-7.6-.63-2.21-1.04-4.94 .89-6.66m-7.7,22.43c-.12,1.82 .55,3.36 2.05,4.43 .21-1.29 .39-2.58 .58-3.87-.66-.14-1.98-.42-2.63-.56z"/>
<g fill="#77778a">
<path d="m16.91,6.56c-2.89-1.82 1.41-3.6 2.7-4.98 .68,.37 2.04,1.13 2.72,1.51 .27,1.13 .55,2.26 .83,3.39-2.08,.1-4.17,.27-6.25,.08z"/>
<path d="m14.33,11.49c2.97-1.22 6.17-1.05 9.29-.73l.9,.05c.36,1.06 1.08,3.18 1.44,4.24-.34,.1-1.03,.28-1.38,.38-3.68,.91-7.46,1.22-11.22,1.64 .33-1.86 .65-3.72 .97-5.58z"/>
<path d="m22.95,25.35c-1.97-1.8 .73-4.44 2.24-2.04-.56,.51-1.68,1.53-2.24,2.04z"/>
<path d="m6,25.1c.65,.14 1.97,.42 2.63,.56-.19,1.29-.37,2.58-.58,3.87-1.5-1.07-2.17-2.61-2.05-4.43z"/>
</g>
</svg>

<?xml version="1.0" encoding="UTF-8" standalone="no"?>
<!-- Created with Inkscape (http://www.inkscape.org/) -->
<svg
   xmlns:svg="http://www.w3.org/2000/svg"
   xmlns="http://www.w3.org/2000/svg"
   version="1.0"
   width="32pt"
   height="32pt"
   viewBox="0 0 32 32"
   id="svg2">
  <defs
     id="defs17" />
  <g
     id="#575975ff">
    <path
       d="M 13.7,2.67 C 15.15,0.81 17.59,1.31 19.61,1.58 C 18.32,2.96 14.02,4.74 16.91,6.56 C 18.99,6.75 21.08,6.58 23.16,6.48 C 22.88,5.35 22.6,4.22 22.33,3.09 C 24.43,5.26 23.18,8.13 23.62,10.76 C 20.5,10.44 17.3,10.27 14.33,11.49 C 14.01,13.35 13.69,15.21 13.36,17.07 C 17.12,16.65 20.9,16.34 24.58,15.43 C 23.7,16.03 22.81,16.61 21.92,17.19 C 23.63,19.28 25.25,21.45 26.69,23.73 C 26.32,23.62 25.56,23.41 25.19,23.31 C 23.68,20.91 20.98,23.55 22.95,25.35 L 23.34,25.92 C 20.74,27.91 18.34,25.17 16.92,23.18 C 14.6,26.5 11.53,29.41 7.65,30.78 C 3.81,31 3.45,26.48 2.09,23.91 C 5.22,22.63 9.17,20.78 9.47,16.93 C 9.72,14.07 10.92,11.47 12.81,9.33 C 12.18,7.12 11.77,4.39 13.7,2.67 M 6,25.1 C 5.88,26.92 6.55,28.46 8.05,29.53 C 8.26,28.24 8.44,26.95 8.63,25.66 C 7.97,25.52 6.65,25.24 6,25.1 z"
       id="path5"
       style="opacity:1;fill:#575975" />
  </g>
  <g
     id="#77778aff">
    <path
       d="M 16.91,6.56 C 14.02,4.74 18.32,2.96 19.61,1.58 C 20.29,1.95 21.65,2.71 22.33,3.09 C 22.6,4.22 22.88,5.35 23.16,6.48 C 21.08,6.58 18.99,6.75 16.91,6.56 z"
       id="path8"
       style="opacity:1;fill:#77778a" />
    <path
       d="M 14.33,11.49 C 17.3,10.27 20.5,10.44 23.62,10.76 L 24.52,10.81 C 24.88,11.87 25.6,13.99 25.96,15.05 C 25.62,15.15 24.93,15.33 24.58,15.43 C 20.9,16.34 17.12,16.65 13.36,17.07 C 13.69,15.21 14.01,13.35 14.33,11.49 z"
       id="path10"
       style="opacity:1;fill:#77778a" />
    <path
       d="M 22.95,25.35 C 20.98,23.55 23.68,20.91 25.19,23.31 C 24.63,23.82 23.51,24.84 22.95,25.35 z"
       id="path12"
       style="opacity:1;fill:#77778a" />
    <path
       d="M 6,25.1 C 6.65,25.24 7.97,25.52 8.63,25.66 C 8.44,26.95 8.26,28.24 8.05,29.53 C 6.55,28.46 5.88,26.92 6,25.1 z"
       id="path14"
       style="opacity:1;fill:#77778a" />
  </g>
</svg>
